X:1
T:The New Mown Meadow
R:reel
M:4/4
L:1/8
K:Edor
|:BEED ~E2FA|BdcA BAFA|BEED ~E2EF|A2BA FAAd|
|BEED ~E2FA|BdcA BAFA|d2dB c2cB|1 AcBA FEFA:|AcBA FAAc|]
|:~e2ce fece|eAcA BAFA||~e2ce fecB|AcBA FAAc|
|~e2ce fece|eAcA BAFA|d2dB c2cB|1 AcBA FAAc:|2 AcBA FEFA|]